elusive/hand-left.svg

<?xml version="1.0" encoding="UTF-8" standalone="no"?>
<!-- Generator: IcoMoon.io -->

<svg
   xmlns:dc="http://purl.org/dc/elements/1.1/"
   xmlns:cc="http://creativecommons.org/ns#"
   xmlns:rdf="http://www.w3.org/1999/02/22-rdf-syntax-ns#"
   xmlns:svg="http://www.w3.org/2000/svg"
   xmlns="http://www.w3.org/2000/svg"
   xmlns:sodipodi="http://sodipodi.sourceforge.net/DTD/sodipodi-0.dtd"
   xmlns:inkscape="http://www.inkscape.org/namespaces/inkscape"
   id="svg2"
   version="1.1"
   data-tags="remove-circle, cancel, close, remove, delete"
   height="1200"
   width="1200"
   data-du=""
   viewBox="0 0 1200 1200"
   inkscape:version="0.48.4 r9939"
   sodipodi:docname="hand-left.svg">
  <defs
     id="defs32" />
  <sodipodi:namedview
     pagecolor="#ffffff"
     bordercolor="#666666"
     borderopacity="1"
     objecttolerance="10"
     gridtolerance="10"
     guidetolerance="10"
     inkscape:pageopacity="0"
     inkscape:pageshadow="2"
     inkscape:window-width="1535"
     inkscape:window-height="876"
     id="namedview30"
     showgrid="false"
     inkscape:zoom="0.37249375"
     inkscape:cx="468.98857"
     inkscape:cy="788.43573"
     inkscape:window-x="65"
     inkscape:window-y="24"
     inkscape:window-maximized="1"
     inkscape:current-layer="svg2" />
  <metadata
     id="metadata62">
    <rdf:RDF>
      <cc:Work
         rdf:about="">
        <dc:format>image/svg+xml</dc:format>
        <dc:type
           rdf:resource="http://purl.org/dc/dcmitype/StillImage" />
        <dc:title />
      </cc:Work>
    </rdf:RDF>
  </metadata>
  <path
     style="fill:currentColor"
     inkscape:connector-curvature="0"
     d="m 1200,972.13729 0,-415.50882 c -2.1923,-43.9725 -37.7883,-75.72373 -76.8982,-76.25201 l -186.10658,0 C 883.79889,439.52256 846.09781,382.82327 794.83041,341.76594 776.73665,327.33405 762.73557,311.28664 752.82713,293.62367 720.6137,230.34244 740.13197,156.66925 694.34565,106.22473 602.33778,66.742155 492.1143,121.97543 461.06618,208.64798 c -24.40454,70.78008 -8.05102,141.36561 22.29397,203.87715 -109.85599,-0.18094 -219.70988,0.70805 -329.56377,1.29235 C 64.363117,420.49552 0.59437894,480.70902 4.05e-6,566.32152 0.24375402,652.59704 74.62288,715.33805 153.79638,716.8868 l 129.24068,0 c 4.30804,25.41725 12.70875,48.46523 25.20187,69.14366 -7.23937,53.14429 9.32718,105.24678 41.3571,142.81099 17.57601,306.75085 419.44305,124.76075 569.95138,120.19375 l 203.55419,0 c 44.2819,-2.0962 76.3701,-37.5897 76.8984,-76.89791 z m -277.22127,0 C 802.35385,974.72855 390.87017,1156.7955 430.37172,895.88528 386.8265,872.41544 370.0715,809.5999 396.76914,769.8757 356.20329,729.87069 344.65096,679.61134 383.84502,639.98883 c -38.77219,0 -77.11358,-0.21537 -115.0242,-0.64615 -37.91062,-0.43079 -76.25201,-0.64618 -115.0242,-0.64618 -44.37046,-0.93235 -75.121866,-33.48772 -75.60585,-72.37475 1.013672,-45.97546 35.91351,-75.1364 75.60585,-75.60585 150.38458,-0.008 298.6319,-1.27663 438.126,-1.29235 C 579.36856,388.66084 459.1539,251.8386 581.90638,172.46072 c 19.65187,-9.65202 35.36742,-13.74866 55.89655,-10.01623 3.44648,1.72311 5.385,3.44648 5.81579,5.16959 0.43078,1.72313 1.07695,4.52344 1.9385,8.4007 13.04438,79.87007 25.2211,159.73029 87.23741,212.60083 68.26264,52.34272 108.51396,134.74895 186.75278,168.01286 l 3.23109,0 z"
     id="path11105" />
</svg>

<?xml version="1.0" encoding="utf-8"?>
<!-- Generator: Adobe Illustrator 16.0.0, SVG Export Plug-In . SVG Version: 6.00 Build 0)  -->
<!DOCTYPE svg PUBLIC "-//W3C//DTD SVG 1.1//EN" "http://www.w3.org/Graphics/SVG/1.1/DTD/svg11.dtd">
<svg version="1.1"
	 id="svg2" xmlns:dc="http://purl.org/dc/elements/1.1/" xmlns:cc="http://creativecommons.org/ns#" xmlns:rdf="http://www.w3.org/1999/02/22-rdf-syntax-ns#" xmlns:svg="http://www.w3.org/2000/svg" xmlns:sodipodi="http://sodipodi.sourceforge.net/DTD/sodipodi-0.dtd" xmlns:inkscape="http://www.inkscape.org/namespaces/inkscape" sodipodi:docname="hand-left.svg" inkscape:version="0.48.4 r9939"
	 xmlns="http://www.w3.org/2000/svg" xmlns:xlink="http://www.w3.org/1999/xlink" x="0px" y="0px" width="1200px" height="1200px"
	 viewBox="0 0 1200 1200" enable-background="new 0 0 1200 1200" xml:space="preserve">
<sodipodi:namedview  inkscape:cy="788.43573" inkscape:cx="468.98857" inkscape:zoom="0.37249375" showgrid="false" id="namedview30" guidetolerance="10" gridtolerance="10" objecttolerance="10" borderopacity="1" bordercolor="#666666" pagecolor="#ffffff" inkscape:current-layer="svg2" inkscape:window-maximized="1" inkscape:window-y="24" inkscape:window-height="876" inkscape:window-width="1535" inkscape:pageshadow="2" inkscape:pageopacity="0" inkscape:window-x="65">
	</sodipodi:namedview>
<path id="path11105" inkscape:connector-curvature="0" d="M1200,972.138V556.629c-2.192-43.973-37.788-75.725-76.898-76.253H936.995
	c-53.196-40.854-90.897-97.553-142.165-138.61c-18.094-14.432-32.095-30.479-42.003-48.142
	c-32.214-63.281-12.695-136.954-58.481-187.399c-92.008-39.482-202.231,15.751-233.279,102.423
	c-24.404,70.78-8.051,141.366,22.294,203.877c-109.856-0.182-219.71,0.708-329.564,1.292C64.363,420.495,0.594,480.709,0,566.321
	c0.244,86.275,74.623,149.017,153.796,150.565h129.241c4.308,25.417,12.708,48.465,25.202,69.144
	c-7.239,53.145,9.327,105.247,41.357,142.812c17.576,306.75,419.443,124.761,569.951,120.193h203.555
	C1167.384,1046.939,1199.472,1011.445,1200,972.138z M922.778,972.138c-120.425,2.591-531.908,184.658-492.406-76.253
	c-43.545-23.47-60.301-86.285-33.603-126.009c-40.566-40.005-52.119-90.265-12.924-129.887c-38.772,0-77.114-0.216-115.024-0.646
	s-76.252-0.646-115.024-0.646c-44.371-0.933-75.122-33.487-75.606-72.375c1.014-45.975,35.914-75.136,75.606-75.605
	c150.384-0.008,298.632-1.276,438.126-1.292c-12.555-100.763-132.769-237.585-10.017-316.963
	c19.652-9.652,35.367-13.749,55.896-10.017c3.446,1.723,5.385,3.447,5.816,5.17c0.431,1.723,1.076,4.523,1.938,8.4
	c13.044,79.87,25.221,159.73,87.237,212.601c68.263,52.343,108.514,134.749,186.752,168.014h3.231V972.138z"/>
</svg>
